polaris-icons/icons/new-icons/TextAlignmentCenterMajor.svg

<svg width="20" height="20" viewBox="0 0 20 20" fill="none" xmlns="http://www.w3.org/2000/svg">
<path fill-rule="evenodd" clip-rule="evenodd" d="M3 4.75C3 4.33579 3.33579 4 3.75 4H16.25C16.6642 4 17 4.33579 17 4.75C17 5.16421 16.6642 5.5 16.25 5.5H3.75C3.33579 5.5 3 5.16421 3 4.75Z" fill="#4A4A4A"/>
<path fill-rule="evenodd" clip-rule="evenodd" d="M5.25 8.25C5.25 7.83579 5.58579 7.5 6 7.5H14C14.4142 7.5 14.75 7.83579 14.75 8.25C14.75 8.66421 14.4142 9 14 9H6C5.58579 9 5.25 8.66421 5.25 8.25Z" fill="#4A4A4A"/>
<path fill-rule="evenodd" clip-rule="evenodd" d="M3 11.75C3 11.3358 3.33579 11 3.75 11H16.25C16.6642 11 17 11.3358 17 11.75C17 12.1642 16.6642 12.5 16.25 12.5H3.75C3.33579 12.5 3 12.1642 3 11.75Z" fill="#4A4A4A"/>
<path fill-rule="evenodd" clip-rule="evenodd" d="M5.25 15.25C5.25 14.8358 5.58579 14.5 6 14.5H14C14.4142 14.5 14.75 14.8358 14.75 15.25C14.75 15.6642 14.4142 16 14 16H6C5.58579 16 5.25 15.6642 5.25 15.25Z" fill="#4A4A4A"/>
</svg>

<svg viewBox="0 0 20 20" xmlns="http://www.w3.org/2000/svg"><path fill-rule="evenodd" d="M3 4.75a.75.75 0 0 1 .75-.75h12.5a.75.75 0 0 1 0 1.5h-12.5a.75.75 0 0 1-.75-.75Z" fill="#5C5F62"/><path fill-rule="evenodd" d="M5.25 8.25a.75.75 0 0 1 .75-.75h8a.75.75 0 0 1 0 1.5h-8a.75.75 0 0 1-.75-.75Z" fill="#5C5F62"/><path fill-rule="evenodd" d="M3 11.75a.75.75 0 0 1 .75-.75h12.5a.75.75 0 0 1 0 1.5h-12.5a.75.75 0 0 1-.75-.75Z" fill="#5C5F62"/><path fill-rule="evenodd" d="M5.25 15.25a.75.75 0 0 1 .75-.75h8a.75.75 0 0 1 0 1.5h-8a.75.75 0 0 1-.75-.75Z" fill="#5C5F62"/></svg>
